X:42
T:The Teelin Highland
D:Altan-The red crow
C:highland
M:4/4
L:1/8
K:D
A2 eg fdeA|(3Bcd ef gfge|A2 eg fdfa|
|[1gedg eA (3AAA:|[2gedB A2 A^g||a2 eg fdgf|
eABA cee^g|a2 eg fdfa|gedg eA (3AAA|a2 eg fdgf|
eABA cee^g|a2 eg fdfa|gedg eAA2||
(3Bcd eg fdeA|(3Bcd ef gfgA|(3Bcd eg fdea|
|[1gedB A2 AG:|[2gedB A2 A^g||a2 ea fded|
cABA cee^g|a2 ea fdea|gedB A2 A^g|a2 ea faea|
cABA cee^g|a2 eg fefa|gedB A2 A2||
